client/src/img/Gmail.svg

<svg width="48" height="48" viewBox="0 0 48 48" fill="none" xmlns="http://www.w3.org/2000/svg">
<path d="M0 24C0 10.7452 10.7452 0 24 0C37.2548 0 48 10.7452 48 24C48 37.2548 37.2548 48 24 48C10.7452 48 0 37.2548 0 24Z" fill="white"/>
<path d="M34.4695 33.23H13.5007C12.6876 33.23 12.0029 32.5667 12.0029 31.7322V16.5833C12.0029 15.7703 12.6662 15.0856 13.5007 15.0856H34.4695C35.2826 15.0856 35.9673 15.7489 35.9673 16.5833V31.7322C35.9673 32.5667 35.304 33.23 34.4695 33.23Z" fill="#E3E3E3"/>
<path opacity="0.1" d="M14.9986 33.23L23.9638 26.0193L24.028 25.6342L14.7846 18.9798L14.7632 32.9091L14.9986 33.23Z" fill="#231F20"/>
<path d="M13.5007 33.23C12.6662 33.23 12.0029 32.5667 12.0029 31.7322V16.5619C12.0029 15.7275 12.6662 15.5777 13.5007 15.5777C14.3352 15.5777 14.9985 15.7489 14.9985 16.5619V33.23H13.5007Z" fill="#D54B3D"/>
<path fill-rule="evenodd" clip-rule="evenodd" d="M12.0029 16.5619C12.0029 15.7489 12.6662 15.5777 13.5007 15.5777C14.3352 15.5777 14.9985 15.7275 14.9985 16.5619V33.23H13.5007C12.6662 33.23 12.0029 32.5667 12.0029 31.7322V16.5619ZM14.7845 16.5619C14.7845 16.1126 14.5705 15.7917 13.5007 15.7917C12.4309 15.7917 12.2169 16.0912 12.2169 16.5619V31.7322C12.2169 32.4383 12.7946 33.016 13.5007 33.016H14.7845V16.5619Z" fill="#D72B27"/>
<path d="M34.4695 33.23H32.9717V16.5192C32.9717 15.6847 33.635 15.5777 34.4695 15.5777C35.3039 15.5777 35.9672 15.6847 35.9672 16.5192V31.7536C35.9672 32.5667 35.3039 33.23 34.4695 33.23Z" fill="#D54B3D"/>
<path fill-rule="evenodd" clip-rule="evenodd" d="M32.9717 16.5192C32.9717 15.6847 33.635 15.5777 34.4695 15.5777C35.3039 15.5777 35.9672 15.6847 35.9672 16.5192V31.7536C35.9672 32.5881 35.3039 33.2514 34.4695 33.2514H32.9717V16.5192ZM35.7533 16.5192C35.7533 15.9842 35.4323 15.7917 34.4695 15.7917C33.5066 15.7917 33.1857 15.9628 33.1857 16.5192V33.0374H34.4695C35.1756 33.0374 35.7533 32.4597 35.7533 31.7536V16.5192Z" fill="#D72B27"/>
<path d="M28.0506 33.23L12.1284 17.1842L12.9659 17.5248L24.0494 25.5058L35.9674 16.7666V31.7536C35.9674 32.5667 35.3041 33.23 34.4696 33.23H28.0506Z" fill="url(#paint0_linear)"/>
<path d="M23.9641 26.0193L12.6452 17.803C11.9819 17.3109 11.7894 16.3694 12.2815 15.7061C12.7736 15.0428 13.7365 14.893 14.4212 15.3851L23.9855 22.3391L33.614 15.2996C34.2773 14.8074 35.2188 14.9572 35.7109 15.6419C36.203 16.3052 36.0532 17.2467 35.3685 17.7388L23.9641 26.0193Z" fill="#D54B3D"/>
<path fill-rule="evenodd" clip-rule="evenodd" d="M33.5924 15.2782C33.8492 15.0856 34.1701 15 34.4697 15C34.9404 15 35.3897 15.214 35.6893 15.6419C36.16 16.3266 36.0103 17.2467 35.347 17.7388L23.9639 26.0407L12.645 17.803C11.9817 17.3108 11.7892 16.3694 12.2599 15.7061C12.5594 15.2996 13.0302 15.0856 13.5009 15.0856C13.8219 15.0856 14.1428 15.1712 14.3996 15.3637L23.9639 22.3177L33.5924 15.2782ZM35.5181 15.7489C35.2614 15.4065 34.8762 15.214 34.4697 15.214C34.1915 15.214 33.9348 15.2996 33.6994 15.4493L24.0923 22.4889L23.9639 22.5744L23.8355 22.4889L14.2926 15.5563C14.0786 15.3851 13.8005 15.2996 13.5223 15.2996C13.0944 15.2996 12.6878 15.5135 12.4525 15.8345C12.0459 16.3908 12.1957 17.2039 12.7734 17.6318L23.9639 25.7625L35.24 17.5462C35.7963 17.1183 35.9247 16.3266 35.5181 15.7489Z" fill="#D72B27"/>
<defs>
<linearGradient id="paint0_linear" x1="12.1293" y1="33.2319" x2="35.9751" y2="33.2319" gradientUnits="userSpaceOnUse">
<stop stop-opacity="0.1"/>
<stop offset="1" stop-opacity="0.2"/>
</linearGradient>
</defs>
</svg>

<svg width="48" height="48" fill="none" xmlns="http://www.w3.org/2000/svg"><path d="M0 24C0 10.745 10.745 0 24 0s24 10.745 24 24-10.745 24-24 24S0 37.255 0 24z" fill="#fff"/><path d="M34.47 33.23H13.5a1.502 1.502 0 01-1.497-1.498V16.583c0-.813.663-1.497 1.498-1.497h20.968c.814 0 1.498.663 1.498 1.497v15.15c0 .834-.663 1.497-1.498 1.497z" fill="#E3E3E3"/><path opacity=".1" d="M14.999 33.23l8.965-7.21.064-.386-9.243-6.654-.022 13.93.236.32z" fill="#231F20"/><path d="M13.5 33.23a1.489 1.489 0 01-1.497-1.498v-15.17c0-.835.663-.984 1.498-.984.834 0 1.498.17 1.498.984V33.23H13.5z" fill="#D54B3D"/><path fill-rule="evenodd" clip-rule="evenodd" d="M12.003 16.562c0-.813.663-.984 1.498-.984.834 0 1.498.15 1.498.984V33.23H13.5a1.489 1.489 0 01-1.498-1.498v-15.17zm2.781 0c0-.45-.214-.77-1.283-.77-1.07 0-1.284.3-1.284.77v15.17c0 .706.578 1.284 1.284 1.284h1.284V16.562z" fill="#D72B27"/><path d="M34.47 33.23h-1.498V16.52c0-.835.663-.942 1.497-.942.835 0 1.498.107 1.498.941v15.235c0 .813-.663 1.476-1.498 1.476z" fill="#D54B3D"/><path fill-rule="evenodd" clip-rule="evenodd" d="M32.972 16.52c0-.835.663-.942 1.497-.942.835 0 1.498.107 1.498.941v15.235c0 .834-.663 1.497-1.498 1.497h-1.497V16.52zm2.781 0c0-.536-.32-.728-1.284-.728-.962 0-1.283.17-1.283.727v16.518h1.283c.707 0 1.284-.577 1.284-1.283V16.519z" fill="#D72B27"/><path d="M28.05 33.23L12.129 17.184l.838.34 11.083 7.982 11.918-8.74v14.988c0 .813-.663 1.476-1.497 1.476h-6.42z" fill="url(#paint0_linear)"/><path d="M23.964 26.02l-11.319-8.217c-.663-.492-.856-1.434-.364-2.097a1.552 1.552 0 012.14-.32l9.564 6.953 9.629-7.04a1.488 1.488 0 012.097.343 1.488 1.488 0 01-.343 2.097l-11.404 8.28z" fill="#D54B3D"/><path fill-rule="evenodd" clip-rule="evenodd" d="M33.592 15.278c.257-.192.578-.278.878-.278.47 0 .92.214 1.22.642.47.685.32 1.605-.343 2.097L23.964 26.04l-11.319-8.238c-.663-.492-.856-1.434-.385-2.097.3-.406.77-.62 1.24-.62.322 0 .643.085.9.278l9.564 6.954 9.628-7.04zm1.926.47a1.307 1.307 0 00-1.048-.534c-.279 0-.535.086-.77.235l-9.608 7.04-.128.085-.128-.085-9.543-6.933a1.237 1.237 0 00-.77-.256c-.429 0-.835.213-1.07.534-.407.557-.257 1.37.32 1.798l11.19 8.13 11.277-8.216c.556-.428.685-1.22.278-1.797z" fill="#D72B27"/><defs><linearGradient id="paint0_linear" x1="12.129" y1="33.232" x2="35.975" y2="33.232" gradientUnits="userSpaceOnUse"><stop stop-opacity=".1"/><stop offset="1" stop-opacity=".2"/></linearGradient></defs></svg>
